front/src/img/NoSound.svg

<svg width="15" height="15" viewBox="0 0 15 15" fill="none" xmlns="http://www.w3.org/2000/svg">
<path d="M11.25 7.5C11.25 6.025 10.4 4.75833 9.16667 4.14167V5.98333L11.2083 8.025C11.2333 7.85833 11.25 7.68333 11.25 7.5ZM13.3333 7.5C13.3333 8.28333 13.1667 9.01667 12.8833 9.7L14.1417 10.9583C14.6917 9.925 15 8.75 15 7.5C15 3.93333 12.5083 0.95 9.16667 0.191667V1.90833C11.575 2.625 13.3333 4.85833 13.3333 7.5ZM1.05833 0L0 1.05833L3.94167 5H0V10H3.33333L7.5 14.1667V8.55833L11.0417 12.1C10.4833 12.5333 9.85833 12.875 9.16667 13.0833V14.8C10.3167 14.5417 11.3583 14.0083 12.2417 13.2917L13.9417 15L15 13.9417L7.5 6.44167L1.05833 0ZM7.5 0.833333L5.75833 2.575L7.5 4.31667V0.833333Z" fill="#244D35"/>
</svg>

<svg xmlns="http://www.w3.org/2000/svg" width="15" height="15" fill="none"><path fill="#244D35" d="M11.25 7.5a3.75 3.75 0 0 0-2.083-3.358v1.841l2.041 2.042c.025-.167.042-.342.042-.525Zm2.083 0c0 .783-.166 1.517-.45 2.2l1.259 1.258A7.33 7.33 0 0 0 15 7.5 7.497 7.497 0 0 0 9.167.192v1.716A5.838 5.838 0 0 1 13.333 7.5ZM1.058 0 0 1.058 3.942 5H0v5h3.333L7.5 14.167V8.558l3.542 3.542a5.77 5.77 0 0 1-1.875.983V14.8a7.492 7.492 0 0 0 3.075-1.508l1.7 1.708L15 13.942l-7.5-7.5L1.058 0ZM7.5.833 5.758 2.575 7.5 4.317V.833Z"/></svg>
